SVG_Azure_All/Azure Stack Update.svg

<?xml version="1.0" encoding="UTF-8" standalone="no"?>
<!-- Generated by Microsoft Visio, SVG Export Azure Stack Update.svg Page-1 -->

<svg
   xmlns:dc="http://purl.org/dc/elements/1.1/"
   xmlns:cc="http://creativecommons.org/ns#"
   xmlns:rdf="http://www.w3.org/1999/02/22-rdf-syntax-ns#"
   xmlns:svg="http://www.w3.org/2000/svg"
   xmlns="http://www.w3.org/2000/svg"
   xmlns:sodipodi="http://sodipodi.sourceforge.net/DTD/sodipodi-0.dtd"
   xmlns:inkscape="http://www.inkscape.org/namespaces/inkscape"
   width="0.78810775in"
   height="0.78740871in"
   viewBox="0 0 56.743756 56.693568"
   xml:space="preserve"
   class="st6"
   version="1.1"
   id="svg50"
   sodipodi:docname="Azure Stack Update.svg"
   style="font-size:12px;overflow:visible;color-interpolation-filters:sRGB;fill:none;fill-rule:evenodd;stroke-linecap:square;stroke-miterlimit:3"
   inkscape:version="0.92.5 (2060ec1f9f, 2020-04-08)"><metadata
   id="metadata54"><rdf:RDF><cc:Work
       rdf:about=""><dc:format>image/svg+xml</dc:format><dc:type
         rdf:resource="http://purl.org/dc/dcmitype/StillImage" /></cc:Work></rdf:RDF></metadata><sodipodi:namedview
   pagecolor="#ffffff"
   bordercolor="#666666"
   borderopacity="1"
   objecttolerance="10"
   gridtolerance="10"
   guidetolerance="10"
   inkscape:pageopacity="0"
   inkscape:pageshadow="2"
   inkscape:window-width="640"
   inkscape:window-height="480"
   id="namedview52"
   showgrid="false"
   inkscape:zoom="1.8365233"
   inkscape:cx="37.786248"
   inkscape:cy="18.901625"
   inkscape:window-x="0"
   inkscape:window-y="0"
   inkscape:window-maximized="0"
   inkscape:current-layer="svg50" />
	<style
   type="text/css"
   id="style2">
	<![CDATA[
		.st1 {fill:#0078d4;stroke:none;stroke-linecap:butt;stroke-width:0.75}
		.st2 {fill:#f2f2f2;stroke:none;stroke-linecap:butt;stroke-width:0.75}
		.st3 {fill:#50e6ff;stroke:none;stroke-linecap:butt;stroke-width:0.75}
		.st4 {fill:#32bedd;stroke:none;stroke-linecap:butt;stroke-width:0.75}
		.st5 {fill:url(#grad0-16);stroke:none;stroke-linecap:butt;stroke-width:0.75}
		.st6 {fill:none;fill-rule:evenodd;font-size:12px;overflow:visible;stroke-linecap:square;stroke-miterlimit:3}
	]]>
	</style>

	<defs
   id="Patterns_And_Gradients">
		<linearGradient
   id="grad0-16"
   x1="-0.089866381"
   y1="56.664806"
   x2="33.729998"
   y2="56.664806"
   gradientTransform="scale(0.93882312,1.0651634)"
   gradientUnits="userSpaceOnUse">
			<stop
   offset="0"
   stop-color="#9cebff"
   stop-opacity="1"
   id="stop4" />
			<stop
   offset="1"
   stop-color="#50e6ff"
   stop-opacity="1"
   id="stop6" />
		</linearGradient>
	</defs>
	<g
   id="g48"
   transform="translate(-5.6760792,-5.6716871)">
		<title
   id="title10">Page-1</title>
		<g
   id="group7526-1"
   transform="translate(5.66929,-34.0157)">
			<title
   id="title12">Azure Stack Update</title>
			<g
   id="group7527-2">
				<title
   id="title14">Sheet.7527</title>
				<g
   id="shape7528-3"
   transform="translate(17.6673,-12.0326)">
					<title
   id="title16">Sheet.7528</title>
					<path
   d="M 23.94,51.72 H 1.48 a 1.44393,1.45949 -180 0 0 -1.45,1.46 v 33.08 a 28.2369,28.5411 0 0 1 3.63,-2.69 h 4.27 l 2.37,3.24 V 91.8 L 7.32,95.83 3.21,95.28 0,94.01 v 0.88 a 1.44393,1.45949 -180 0 0 1.44,1.49 h 22.47 a 1.44393,1.45949 -180 0 0 1.44,-1.49 V 53.18 a 1.44393,1.45949 -180 0 0 -1.41,-1.46 z"
   class="st1"
   id="path18"
   inkscape:connector-curvature="0"
   style="fill:#0078d4;stroke:none;stroke-width:0.75;stroke-linecap:butt" />
				</g>
				<g
   id="shape7529-5"
   transform="translate(20.7156,-34.4763)">
					<title
   id="title21">ad507295-c076-421c-9034-1cdfff6</title>
					<path
   d="m 0.35,80.03 h 4.17 a 0.352961,0.356763 0 0 1 0.385048,0.356763 L 4.91,85.9 A 0.385048,0.389196 0 0 1 4.524952,86.289196 L 0.35,86.29 A 0.352961,0.356763 0 0 1 -0.002961,85.900804 L 0,80.39 a 0.352961,0.356763 0 0 1 0.352961,-0.356763 z m 7.38,0 h 4.14 a 0.352961,0.356763 0 0 1 0.352961,0.356763 L 12.23,85.9 a 0.352961,0.356763 0 0 1 -0.352961,0.389196 L 7.73,86.29 A 0.352961,0.356763 0 0 1 7.377039,85.900804 L 7.38,80.39 a 0.352961,0.356763 0 0 1 0.352961,-0.356763 z m 7.29,0 h 4.1 a 0.352961,0.356763 0 0 1 0.352961,0.356763 L 19.48,85.9 a 0.352961,0.356763 0 0 1 -0.352961,0.389196 L 14.89,86.29 A 0.385048,0.389196 0 0 1 14.504952,85.900804 L 14.5,80.39 a 0.352961,0.356763 0 0 1 0.385048,-0.356763 z M 0.35,90.05 h 4.17 a 0.352961,0.356763 0 0 1 0.385048,0.356763 L 4.91,96.02 A 0.352961,0.356763 0 0 1 4.524952,96.311897 L 0.35,96.31 A 0.352961,0.356763 0 0 1 -0.002961,96.018103 L 0,90.41 a 0.352961,0.356763 0 0 1 0.352961,-0.356763 z m 7.38,0 h 4.14 a 0.352961,0.356763 0 0 1 0.352961,0.356763 L 12.23,96.02 a 0.352961,0.356763 0 0 1 -0.352961,0.356763 L 7.73,96.38 A 0.352961,0.356763 0 0 1 7.24869,96.023237 L 7.25,90.41 a 0.352961,0.356763 0 0 1 0.48131,-0.356763 z m 7.29,0 h 4.1 a 0.352961,0.356763 0 0 1 0.352961,0.356763 L 19.48,96.02 a 0.352961,0.356763 0 0 1 -0.352961,0.356763 L 14.89,96.38 A 0.352961,0.356763 0 0 1 14.504952,96.023237 L 14.5,90.41 a 0.352961,0.356763 0 0 1 0.385048,-0.356763 z"
   class="st2"
   id="path23"
   inkscape:connector-curvature="0"
   style="fill:#f2f2f2;stroke:none;stroke-width:0.75;stroke-linecap:butt" />
				</g>
				<g
   id="shape7530-7"
   transform="translate(7.49565,-16.5205)">
					<title
   id="title26">Sheet.7530</title>
					<path
   d="m 14.92,91.2 a 3.20874,3.2433 -180 0 0 -3.21,2.47 H 0.19 A 9.85082,9.95694 -180 0 0 0,95.38 v 0.17 h 11.71 a 3.20874,3.2433 -180 1 0 3.21,-4.35 z"
   class="st3"
   id="path28"
   inkscape:connector-curvature="0"
   style="fill:#50e6ff;stroke:none;stroke-width:0.75;stroke-linecap:butt" />
				</g>
				<g
   id="shape7531-9"
   transform="translate(7.68817,-9.8272)">
					<title
   id="title31">Sheet.7531</title>
					<path
   d="m 23.58,83.05 a 8.47106,8.56232 -180 0 0 -8.6,-8.27 8.56733,8.65962 -180 0 0 -8.21,5.77 8.24645,8.33529 -180 0 0 -6.42,5.32 h 10.46 a 4.39597,4.44332 0 0 1 3.92,-2.47 4.52432,4.57306 0 1 1 -3.92,6.49 H 0 a 8.18228,8.27042 -180 0 0 8.12,6.49 h 14.18 0.39 a 6.579353,6.6502285 -180 0 0 0.89,-13.27 z"
   class="st4"
   id="path33"
   inkscape:connector-curvature="0"
   style="fill:#32bedd;stroke:none;stroke-width:0.75;stroke-linecap:butt" />
				</g>
				<g
   id="shape7532-11"
   transform="translate(0,-16.4881)">
					<title
   id="title36">Sheet.7532</title>
					<path
   d="m 22.42,91.17 a 3.20874,3.2433 -180 0 0 -3.21,2.46 H 7.69 A 6.16077,6.22714 0 0 1 6.5,93.47 5.90407,5.96768 0 0 1 7.14,81.7 h 0.55 l 0.19,-0.55 a 6.41747,6.4866 0 0 1 6.42,-4.41 6.67417,6.74607 0 0 1 5.84,3.24 9.27325,9.37314 0 0 1 1.89,-0.2 8.53524,8.62718 -180 0 0 -7.86,-4.99 8.43898,8.52988 -180 0 0 -7.83,5.16 7.76514,7.84879 -180 0 0 -0.67,15.27 4.84519,4.89739 -180 0 0 1.89,0.33 h 11.65 a 3.20874,3.2433 -180 1 0 3.21,-4.35 z"
   class="st3"
   id="path38"
   inkscape:connector-curvature="0"
   style="fill:#50e6ff;stroke:none;stroke-width:0.75;stroke-linecap:butt" />
				</g>
				<g
   id="shape7533-13"
   transform="translate(25.0841)">
					<title
   id="title41">Sheet.7533</title>
					<path
   d="M 0.16,75.46 14.6,60.86 a 1.73272,1.75138 0 0 1 2.43,0 l 14.41,14.6 a 0.770097,0.778392 0 0 1 -0.545485,1.32975 L 22.17,76.79 a 0.770097,0.778392 -180 0 0 -0.770097,0.778392 L 21.4,95.76 a 0.60966,0.616227 0 0 1 -0.60966,0.616227 L 11.16,96.38 A 0.577572,0.583794 0 0 1 10.55034,95.763773 L 10.55,77.57 A 0.770097,0.778392 -180 0 0 9.779903,76.791608 L 0.83,76.79 A 0.770097,0.778392 0 0 1 0.156165,75.46025 Z"
   class="st5"
   id="path43"
   inkscape:connector-curvature="0"
   style="fill:url(#grad0-16);stroke:none;stroke-width:0.75;stroke-linecap:butt" />
				</g>
			</g>
		</g>
	</g>
</svg>

<?xml version="1.0" encoding="UTF-8" standalone="no"?>
<!DOCTYPE svg PUBLIC "-//W3C//DTD SVG 1.1//EN" "http://www.w3.org/Graphics/SVG/1.1/DTD/svg11.dtd">
<!-- Generated by Microsoft Visio, SVG Export Azure Stack Update.svg Page-1 -->
<svg xmlns="http://www.w3.org/2000/svg" xmlns:xlink="http://www.w3.org/1999/xlink" xmlns:ev="http://www.w3.org/2001/xml-events"
		width="0.944882in" height="1.33858in" viewBox="0 0 68.0315 96.378" xml:space="preserve" color-interpolation-filters="sRGB"
		class="st6">
	<style type="text/css">
	<![CDATA[
		.st1 {fill:#0078d4;stroke:none;stroke-linecap:butt;stroke-width:0.75}
		.st2 {fill:#f2f2f2;stroke:none;stroke-linecap:butt;stroke-width:0.75}
		.st3 {fill:#50e6ff;stroke:none;stroke-linecap:butt;stroke-width:0.75}
		.st4 {fill:#32bedd;stroke:none;stroke-linecap:butt;stroke-width:0.75}
		.st5 {fill:url(#grad0-16);stroke:none;stroke-linecap:butt;stroke-width:0.75}
		.st6 {fill:none;fill-rule:evenodd;font-size:12px;overflow:visible;stroke-linecap:square;stroke-miterlimit:3}
	]]>
	</style>

	<defs id="Patterns_And_Gradients">
		<linearGradient id="grad0-16" x1="0" y1="0" x2="1" y2="0" gradientTransform="rotate(91.06188994431 0.5 0.5)">
			<stop offset="0" stop-color="#9cebff" stop-opacity="1"/>
			<stop offset="1" stop-color="#50e6ff" stop-opacity="1"/>
		</linearGradient>
	</defs>
	<g>
		<title>Page-1</title>
		<g id="group7353-1" transform="translate(5.66929,-34.0157)">
			<title>Azure Stack Update</title>
			<g id="group7354-2">
				<title>Sheet.7354</title>
				<g id="shape7355-3" transform="translate(17.6673,-12.0326)">
					<title>Sheet.7355</title>
					<path d="M23.94 51.72 L1.48 51.72 A1.44393 1.45949 -180 0 0 0.03 53.18 L0.03 86.26 A28.2369 28.5411 0 0 1 3.66
								 83.57 L7.93 83.57 L10.3 86.81 L10.3 91.8 L7.32 95.83 L3.21 95.28 L0 94.01 L0 94.89 A1.44393 1.45949
								 -180 0 0 1.44 96.38 L23.91 96.38 A1.44393 1.45949 -180 0 0 25.35 94.89 L25.35 53.18 A1.44393 1.45949
								 -180 0 0 23.94 51.72 Z" class="st1"/>
				</g>
				<g id="shape7356-5" transform="translate(20.7156,-34.4763)">
					<title>ad507295-c076-421c-9034-1cdfff6</title>
					<path d="M0.35 80.03 L4.52 80.03 a0.352961 0.356763 0 0 1 0.385048 0.356763 L4.91 85.9 a0.385048 0.389196 0 0
								 1 -0.385048 0.389196 L0.35 86.29 a0.352961 0.356763 0 0 1 -0.352961 -0.389196 L0 80.39 a0.352961
								 0.356763 0 0 1 0.352961 -0.356763 ZM7.73 80.03 L11.87 80.03 a0.352961 0.356763 0 0 1 0.352961 0.356763
								 L12.23 85.9 a0.352961 0.356763 0 0 1 -0.352961 0.389196 L7.73 86.29 a0.352961 0.356763 0 0 1 -0.352961
								 -0.389196 L7.38 80.39 a0.352961 0.356763 0 0 1 0.352961 -0.356763 ZM15.02 80.03 L19.12 80.03 a0.352961
								 0.356763 0 0 1 0.352961 0.356763 L19.48 85.9 a0.352961 0.356763 0 0 1 -0.352961 0.389196 L14.89
								 86.29 a0.385048 0.389196 0 0 1 -0.385048 -0.389196 L14.5 80.39 a0.352961 0.356763 0 0 1 0.385048
								 -0.356763 L15.02 80.03 ZM0.35 90.05 L4.52 90.05 a0.352961 0.356763 0 0 1 0.385048 0.356763 L4.91
								 96.02 a0.352961 0.356763 0 0 1 -0.385048 0.291897 L0.35 96.31 a0.352961 0.356763 0 0 1 -0.352961
								 -0.291897 L0 90.41 a0.352961 0.356763 0 0 1 0.352961 -0.356763 ZM7.73 90.05 L11.87 90.05 a0.352961
								 0.356763 0 0 1 0.352961 0.356763 L12.23 96.02 a0.352961 0.356763 0 0 1 -0.352961 0.356763 L7.73
								 96.38 a0.352961 0.356763 0 0 1 -0.48131 -0.356763 L7.25 90.41 a0.352961 0.356763 0 0 1 0.48131 -0.356763
								 ZM15.02 90.05 L19.12 90.05 a0.352961 0.356763 0 0 1 0.352961 0.356763 L19.48 96.02 a0.352961 0.356763
								 0 0 1 -0.352961 0.356763 L14.89 96.38 a0.352961 0.356763 0 0 1 -0.385048 -0.356763 L14.5 90.41 a0.352961
								 0.356763 0 0 1 0.385048 -0.356763 L15.02 90.05 Z" class="st2"/>
				</g>
				<g id="shape7357-7" transform="translate(7.49565,-16.5205)">
					<title>Sheet.7357</title>
					<path d="M14.92 91.2 A3.20874 3.2433 -180 0 0 11.71 93.67 L0.19 93.67 A9.85082 9.95694 -180 0 0 0 95.38 L0 95.55
								 L11.71 95.55 A3.20874 3.2433 -180 1 0 14.92 91.2 Z" class="st3"/>
				</g>
				<g id="shape7358-9" transform="translate(7.68817,-9.8272)">
					<title>Sheet.7358</title>
					<path d="M23.58 83.05 A8.47106 8.56232 -180 0 0 14.98 74.78 A8.56733 8.65962 -180 0 0 6.77 80.55 A8.24645 8.33529
								 -180 0 0 0.35 85.87 L10.81 85.87 A4.39597 4.44332 0 0 1 14.73 83.4 A4.52432 4.57306 0 1 1 10.81
								 89.89 L0 89.89 A8.18228 8.27042 -180 0 0 8.12 96.38 L22.3 96.38 L22.69 96.38 A6.57791 6.64877 -180
								 0 0 23.58 83.11 L23.58 83.05 Z" class="st4"/>
				</g>
				<g id="shape7359-11" transform="translate(0,-16.4881)">
					<title>Sheet.7359</title>
					<path d="M22.42 91.17 A3.20874 3.2433 -180 0 0 19.21 93.63 L7.69 93.63 A6.16077 6.22714 0 0 1 6.5 93.47 A5.90407
								 5.96768 0 0 1 7.14 81.7 L7.69 81.7 L7.88 81.15 A6.41747 6.4866 0 0 1 14.3 76.74 A6.67417 6.74607
								 0 0 1 20.14 79.98 A9.27325 9.37314 0 0 1 22.03 79.78 A8.53524 8.62718 -180 0 0 14.17 74.79 A8.43898
								 8.52988 -180 0 0 6.34 79.95 A7.76514 7.84879 -180 0 0 5.67 95.22 A4.84519 4.89739 -180 0 0 7.56
								 95.55 L19.21 95.55 A3.20874 3.2433 -180 1 0 22.42 91.2 L22.42 91.17 Z" class="st3"/>
				</g>
				<g id="shape7360-13" transform="translate(25.0841,1.42109E-14)">
					<title>Sheet.7360</title>
					<path d="M0.16 75.46 L14.6 60.86 A1.73272 1.75138 0 0 1 17.03 60.86 L31.44 75.46 a0.770097 0.778392 0 0 1 -0.545485
								 1.32975 L22.17 76.79 a0.770097 0.778392 -180 0 0 -0.770097 0.778392 L21.4 95.76 a0.60966 0.616227
								 0 0 1 -0.60966 0.616227 L11.16 96.38 a0.577572 0.583794 0 0 1 -0.60966 -0.616227 L10.55 77.57 a0.770097
								 0.778392 -180 0 0 -0.770097 -0.778392 L0.83 76.79 a0.770097 0.778392 0 0 1 -0.673835 -1.32975 Z"
							class="st5"/>
				</g>
			</g>
		</g>
	</g>
</svg>
